X: 25811
T: Mason's Apron, The
R: reel
M: 4/4
K: Amajor
|:e2|aAA2 ABAF|EFAc dcBA|dBB2 BcBA|Bcde fefg|
aAA2 ABAF|EFAc dcBA|dcde fefa|edcB A2:|
|:e2|c2 ec fcec|c2 ec fcec|d2 fd adfd|d2 fd adfd|
c2 ec fcec|c2 ec fcec|dcde fgaf|edcB A2:|
|:e2|aeee aeee|aege feee|beee beee|beae gefg|
aeee aeee|aege feee|dcde fefa|edcB A2:|
|:ed|ceee feee|ceee fedc|dfff afff|dfff agfe|
ceee feee|ceee fedc|dcde fefa|edcB A2:|
|:ed|c2 Ac eAce|AceA cecA|d2 Ad fAdf|AdfA dfed|
c2 Ac eAce|AceA cecA|d2 dc defa|edcB A2:|
|:e2|aAA2 ABAF|EFAc dcBA|dBB2 BcBA|Bcde fefg|
[1aAA2 ABAF|EFAc dcBA|dcde fefa|edcB A2:|
[2 a2 g2 f2 e2|d2 c2 B2 A2|G2 F2 E2 D2|C2 B,2 A,4||

